src/images/mobile-icons/star-outline.svg

<svg viewBox="0 0 512 512" xmlns="http://www.w3.org/2000/svg" xmlns:xlink="http://www.w3.org/1999/xlink">
  <title>star-outline</title>
  <path d="M255.964907,52.0208333 C265.044262,52.0208333 273.32766,56.9449 277.706406,64.7405507 L278.899782,67.1633409 L326.009523,178.092787 L446.648862,188.552734 C456.621035,189.414595 465.099597,196.1821 468.15052,205.715148 C470.896351,214.294891 468.762102,223.603355 462.753695,230.111639 L460.608785,232.172517 L369.129287,311.442121 L396.549136,429.341532 C398.839842,439.098349 395.050303,449.27677 386.93666,455.159929 C379.634381,460.454772 370.113926,461.339178 362.041492,457.665119 L359.40934,456.271397 L255.959907,393.70171 L152.520474,456.021398 C143.960618,461.228727 133.11189,460.790948 124.999444,454.910842 C117.698243,449.618746 113.896849,440.84862 114.875621,432.035952 L115.380678,429.101533 L142.800528,311.442121 L51.3210294,232.172517 C43.7323297,225.628231 40.812557,215.168789 43.9144825,205.640193 C46.7344148,196.977833 54.0301084,190.623293 62.8366338,188.921384 L65.5209515,188.552734 L185.920291,178.332786 L233.030033,67.1633409 C236.953435,57.9789539 245.977617,52.0208333 255.964907,52.0208333 Z M296.765628,218.383958 L255.978667,122.325333 L215.166174,218.670388 L111.082667,227.498667 L190.19632,296.055179 L166.464,397.781333 L256.00298,343.863887 L345.429333,397.952 L321.743389,296.046605 L400.938667,227.392 L296.765628,218.383958 Z" fill="#000" fill-rule="nonzero" stroke="none" stroke-width="1"></path>
</svg>

<svg viewBox="0 0 512 512" xmlns="http://www.w3.org/2000/svg" xmlns:xlink="http://www.w3.org/1999/xlink">
  <title>star-outline</title>
  <path d="M255.965 52.02c9.08 0 17.363 4.925 21.741 12.72l1.194 2.423 47.11 110.93 120.639 10.46a24.82 24.82 0 0116.105 41.559l-2.145 2.06-91.48 79.27 27.42 117.9a24.87 24.87 0 01-34.508 28.323l-2.632-1.394-103.45-62.57-103.439 62.32a24.87 24.87 0 01-37.644-23.985l.505-2.934 27.42-117.66-91.48-79.27a24.87 24.87 0 0111.516-43.25l2.684-.37 120.4-10.22L233.03 67.164a24.94 24.94 0 0122.935-15.142zm40.8 166.364l-40.786-96.059-40.813 96.345-104.083 8.829 79.113 68.556-23.732 101.726 89.539-53.917 89.426 54.088-23.686-101.905 79.196-68.655-104.173-9.008z" fill="#000" fill-rule="nonzero" stroke="none" stroke-width="1"></path>
</svg>
